svgs/sharp-light/building-circle-check.svg

<svg xmlns="http://www.w3.org/2000/svg" viewBox="0 0 640 512"><!--! Font Awesome Pro 6.4.2 by @fontawesome - https://fontawesome.com License - https://fontawesome.com/license (Commercial License) Copyright 2023 Fonticons, Inc. --><path d="M32 32H352V266.8c9.1-12.9 19.9-24.5 32-34.6V32 0H352 32 0V32 480v32H32h96 32 64 32 96 32v-8.2c-12.1-10-22.9-21.7-32-34.6V480H256V400 368H224 160 128v32 80H32V32zM160 480V400h64v80H160zM64 96v16 64 16H80h64 16V176 112 96H144 80 64zm32 32h32v32H96V128zM240 96H224v16 64 16h16 64 16V176 112 96H304 240zm16 64V128h32v32H256zM64 224v16 64 16H80h64 16V304 240 224H144 80 64zm32 32h32v32H96V256zm144-32H224v16 64 16h16 64 16V304 240 224H304 240zm16 64V256h32v32H256zm240-32a112 112 0 1 1 0 224 112 112 0 1 1 0-224zm0 256a144 144 0 1 0 0-288 144 144 0 1 0 0 288zm78.6-176L552 313.4l-11.3 11.3L480 385.4l-28.7-28.7L440 345.4 417.4 368l11.3 11.3 40 40L480 430.6l11.3-11.3 72-72L574.6 336z"/></svg>

<svg xmlns="http://www.w3.org/2000/svg" viewBox="0 0 640 512"><!--! Font Awesome Pro 6.6.0 by @fontawesome - https://fontawesome.com License - https://fontawesome.com/license (Commercial License) Copyright 2024 Fonticons, Inc. --><path d="M32 32l320 0 0 234.8c9.1-12.9 19.9-24.5 32-34.6L384 32l0-32L352 0 32 0 0 0 0 32 0 480l0 32 32 0 96 0 32 0 64 0 32 0 96 0 32 0 0-8.2c-12.1-10-22.9-21.7-32-34.6l0 10.8-96 0 0-80 0-32-32 0-64 0-32 0 0 32 0 80-96 0L32 32zM160 480l0-80 64 0 0 80-64 0zM64 96l0 16 0 64 0 16 16 0 64 0 16 0 0-16 0-64 0-16-16 0L80 96 64 96zm32 32l32 0 0 32-32 0 0-32zM240 96l-16 0 0 16 0 64 0 16 16 0 64 0 16 0 0-16 0-64 0-16-16 0-64 0zm16 64l0-32 32 0 0 32-32 0zM64 224l0 16 0 64 0 16 16 0 64 0 16 0 0-16 0-64 0-16-16 0-64 0-16 0zm32 32l32 0 0 32-32 0 0-32zm144-32l-16 0 0 16 0 64 0 16 16 0 64 0 16 0 0-16 0-64 0-16-16 0-64 0zm16 64l0-32 32 0 0 32-32 0zm240-32a112 112 0 1 1 0 224 112 112 0 1 1 0-224zm0 256a144 144 0 1 0 0-288 144 144 0 1 0 0 288zm78.6-176L552 313.4l-11.3 11.3L480 385.4l-28.7-28.7L440 345.4 417.4 368l11.3 11.3 40 40L480 430.6l11.3-11.3 72-72L574.6 336z"/></svg>
